src/assets/icons/filters/categories/house.svg

<svg width="46" height="48" viewBox="0 0 46 48" fill="none" xmlns="http://www.w3.org/2000/svg">
<path fill-rule="evenodd" clip-rule="evenodd" d="M37.6821 4.62286L44.5748 16.3031C45.1454 17.2703 45.1392 18.4068 44.5842 19.3818C44.0544 20.3161 43.4305 20.9102 41.935 21.0435V38.6916C41.942 39.9131 41.7072 41.124 41.2439 42.2544C40.7807 43.3848 40.0982 44.4123 39.236 45.2776C38.3737 46.143 37.3486 46.829 36.2199 47.2963C35.0912 47.7635 33.8811 48.0027 32.6595 48H12.3496C11.1279 48.0029 9.91766 47.7639 8.78875 47.2967C7.65984 46.8296 6.63459 46.1435 5.77215 45.2782C4.9097 44.4128 4.22712 43.3853 3.76379 42.2548C3.30045 41.1243 3.06553 39.9133 3.07257 38.6916V21.0451C1.57864 20.9102 0.956304 20.3287 0.423319 19.3928C-0.128477 18.4178 -0.151991 17.2703 0.418616 16.3046L7.32861 4.62129C7.93684 3.58981 9.09843 2.99882 10.3603 2.99882H13.5551C13.6586 1.49863 14.9863 0 16.6198 0H19.4227C21.0545 0 22.3823 1.49863 22.4858 2.99882H34.6503C35.9107 2.99882 37.0723 3.58981 37.6805 4.62286H37.6821Z" fill="#CFD8DC"/>
<path fill-rule="evenodd" clip-rule="evenodd" d="M32.6595 45.0011H29.9789V37.8733C29.9789 35.1864 27.7999 32.998 25.1225 32.998H19.8882C18.598 33.0018 17.3619 33.5171 16.4511 34.4311C15.5404 35.3451 15.0294 36.583 15.0302 37.8733V44.9996H12.3496C8.91972 44.9996 6.06355 42.1309 6.06355 38.69V20.9996H38.9471V38.6916C38.9471 42.134 36.091 45.0011 32.6611 45.0011H32.6595ZM26.9895 45.0011H18.0212V37.8733C18.0212 36.8402 18.8583 35.9984 19.8882 35.9984H25.1225C26.1524 35.9984 26.9879 36.8402 26.9879 37.8733V44.9996L26.9895 45.0011ZM10.075 6.15127C10.1075 6.10547 10.1502 6.06787 10.1997 6.04147C10.2492 6.01507 10.3042 6.0006 10.3603 5.99921H13.5363V7.49941C13.5363 8.3271 14.2057 8.9996 15.0302 8.9996C15.4274 8.99877 15.808 8.8403 16.0885 8.559C16.3689 8.27771 16.5261 7.8966 16.5257 7.49941L16.6198 3.00039L19.5151 3.09445V7.49941C19.5151 8.3271 20.1845 8.9996 21.0106 8.9996C21.4076 8.99836 21.7878 8.8397 22.0678 8.55845C22.3479 8.2772 22.505 7.89633 22.5046 7.49941V5.99921H34.6503C34.8165 5.99921 34.9184 6.12462 34.9341 6.15284L41.8472 17.8205C41.8347 17.8424 41.75 17.9992 41.5588 17.9992H3.45036C3.30927 17.9992 3.22776 17.8848 3.18857 17.8926L10.075 6.15127V6.15127ZM37.6805 4.62286L44.5748 16.3031C45.1454 17.2703 45.1392 18.4068 44.5842 19.3818C44.0544 20.3161 43.4305 20.9102 41.935 21.0435V38.6916C41.942 39.9131 41.7072 41.124 41.2439 42.2544C40.7807 43.3848 40.0982 44.4123 39.236 45.2776C38.3737 46.143 37.3486 46.829 36.2199 47.2963C35.0912 47.7635 33.8811 48.0027 32.6595 48H12.3496C11.1279 48.0029 9.91766 47.7639 8.78875 47.2967C7.65984 46.8296 6.63459 46.1435 5.77215 45.2782C4.9097 44.4128 4.22712 43.3853 3.76379 42.2548C3.30045 41.1243 3.06553 39.9133 3.07257 38.6916V21.0451C1.57864 20.9102 0.956304 20.3287 0.423319 19.3928C-0.128477 18.4178 -0.151991 17.2703 0.418616 16.3046L7.32861 4.62129C7.93684 3.58981 9.09843 2.99882 10.3603 2.99882H13.5551C13.6586 1.49863 14.9863 0 16.6198 0H19.4227C21.0545 0 22.3823 1.49863 22.4858 2.99882H34.6503C35.9107 2.99882 37.0723 3.58981 37.6805 4.62286V4.62286ZM13.5363 25.5002C13.1394 25.5014 12.7592 25.6601 12.4791 25.9413C12.199 26.2226 12.042 26.6035 12.0424 27.0004V28.5006C12.0424 29.3283 12.7118 30.0008 13.5363 30.0008C13.9335 29.9999 14.3141 29.8415 14.5945 29.5602C14.8749 29.2789 15.0322 28.8978 15.0318 28.5006V27.0004C15.0322 26.6032 14.8749 26.2221 14.5945 25.9408C14.3141 25.6595 13.9335 25.501 13.5363 25.5002V25.5002ZM19.5151 25.5002C19.1182 25.5014 18.738 25.6601 18.4579 25.9413C18.1779 26.2226 18.0208 26.6035 18.0212 27.0004V28.5006C18.0212 29.3283 18.6906 30.0008 19.5151 30.0008C19.9123 29.9999 20.2929 29.8415 20.5734 29.5602C20.8538 29.2789 21.0111 28.8978 21.0106 28.5006V27.0004C21.0111 26.6032 20.8538 26.2221 20.5734 25.9408C20.2929 25.6595 19.9123 25.501 19.5151 25.5002V25.5002ZM25.494 25.5002C25.0971 25.5014 24.7168 25.6601 24.4368 25.9413C24.1567 26.2226 23.9996 26.6035 24.0001 27.0004V28.5006C24.0001 29.3283 24.6694 30.0008 25.494 30.0008C25.8912 29.9999 26.2718 29.8415 26.5522 29.5602C26.8326 29.2789 26.9899 28.8978 26.9895 28.5006V27.0004C26.9899 26.6032 26.8326 26.2221 26.5522 25.9408C26.2718 25.6595 25.8912 25.501 25.494 25.5002V25.5002ZM31.4728 25.5002C31.0759 25.5014 30.6957 25.6601 30.4156 25.9413C30.1355 26.2226 29.9785 26.6035 29.9789 27.0004V28.5006C29.9789 29.3283 30.6483 30.0008 31.4728 30.0008C31.87 29.9999 32.2506 29.8415 32.531 29.5602C32.8114 29.2789 32.9687 28.8978 32.9683 28.5006V27.0004C32.9687 26.6032 32.8114 26.2221 32.531 25.9408C32.2506 25.6595 31.87 25.501 31.4728 25.5002V25.5002Z" fill="#253238"/>
<path fill-rule="evenodd" clip-rule="evenodd" d="M10.075 6.15128C10.1074 6.10547 10.1501 6.06788 10.1996 6.04148C10.2491 6.01508 10.3041 6.00061 10.3603 5.99922H13.5362V7.49941C13.5362 8.32711 14.2056 8.99961 15.0301 8.99961C15.4273 8.99878 15.8079 8.84031 16.0884 8.55901C16.3688 8.27771 16.5261 7.8966 16.5256 7.49941L16.6197 3.0004L19.5151 3.09445V7.49941C19.5151 8.32711 20.1844 8.99961 21.0105 8.99961C21.4075 8.99836 21.7877 8.83971 22.0677 8.55846C22.3478 8.27721 22.5049 7.89633 22.5045 7.49941V5.99922H34.6502C34.8164 5.99922 34.9183 6.12463 34.934 6.15284L41.8471 17.8205C41.8346 17.8425 41.7499 17.9992 41.5587 17.9992H3.45027C3.30918 17.9992 3.22767 17.8848 3.18848 17.8926L10.075 6.15128V6.15128ZM26.9894 45.0012H18.0211V37.8733C18.0211 36.8402 18.8582 35.9984 19.8881 35.9984H25.1224C26.1523 35.9984 26.9878 36.8402 26.9878 37.8733V44.9996L26.9894 45.0012Z" fill="white" fill-opacity="0.5"/>
</svg>

<svg width="46" height="48" viewBox="0 0 46 48" fill="none" xmlns="http://www.w3.org/2000/svg"><path fill-rule="evenodd" clip-rule="evenodd" d="M37.682 4.623l6.893 11.68c.57.967.564 2.104.01 3.079-.53.934-1.154 1.528-2.65 1.662v17.648A9.255 9.255 0 0132.659 48H12.35a9.254 9.254 0 01-9.276-9.308V21.045C1.579 20.91.956 20.33.423 19.393c-.551-.975-.575-2.123-.004-3.088L7.329 4.62C7.937 3.59 9.099 3 10.36 3h3.195C13.66 1.499 14.986 0 16.62 0h2.803c1.632 0 2.96 1.499 3.063 2.999H34.65c1.26 0 2.422.59 3.03 1.624h.002z" fill="#CFD8DC"/><path fill-rule="evenodd" clip-rule="evenodd" d="M32.66 45.001h-2.681v-7.128c0-2.687-2.18-4.875-4.857-4.875h-5.234a4.872 4.872 0 00-4.858 4.875V45h-2.68c-3.43 0-6.286-2.87-6.286-6.31V21h32.883v17.692c0 3.442-2.856 6.31-6.286 6.31h-.002zm-5.67 0H18.02v-7.128c0-1.033.837-1.875 1.867-1.875h5.234c1.03 0 1.866.842 1.866 1.875V45l.002.001zM10.075 6.151A.362.362 0 0110.36 6h3.176v1.5c0 .828.67 1.5 1.494 1.5a1.499 1.499 0 001.496-1.5L16.62 3l2.895.094V7.5c0 .828.67 1.5 1.496 1.5a1.498 1.498 0 001.494-1.5V6H34.65c.166 0 .268.126.284.154l6.913 11.667c-.012.022-.097.18-.288.18H3.45c-.14 0-.222-.115-.261-.107L10.075 6.15zm27.606-1.528l6.894 11.68c.57.967.564 2.104.01 3.079-.53.934-1.154 1.528-2.65 1.662v17.648A9.255 9.255 0 0132.659 48H12.35a9.254 9.254 0 01-9.276-9.308V21.045C1.579 20.91.956 20.33.423 19.393c-.551-.975-.575-2.123-.004-3.088L7.329 4.62C7.937 3.59 9.099 3 10.36 3h3.195C13.66 1.499 14.986 0 16.62 0h2.803c1.632 0 2.96 1.499 3.063 2.999H34.65c1.26 0 2.422.59 3.03 1.624zM13.536 25.5a1.499 1.499 0 00-1.494 1.5v1.5c0 .828.67 1.5 1.494 1.5a1.499 1.499 0 001.496-1.5V27a1.499 1.499 0 00-1.496-1.5zm5.98 0A1.499 1.499 0 0018.02 27v1.5c0 .828.67 1.5 1.494 1.5a1.5 1.5 0 001.496-1.5V27a1.498 1.498 0 00-1.496-1.5zm5.978 0A1.498 1.498 0 0024 27v1.5c0 .828.67 1.5 1.494 1.5a1.499 1.499 0 001.495-1.5V27a1.499 1.499 0 00-1.495-1.5zm5.979 0a1.499 1.499 0 00-1.494 1.5v1.5c0 .828.67 1.5 1.494 1.5a1.499 1.499 0 001.495-1.5V27a1.499 1.499 0 00-1.495-1.5z" fill="#253238"/><path fill-rule="evenodd" clip-rule="evenodd" d="M10.075 6.151A.36.36 0 0110.36 6h3.176v1.5c0 .828.67 1.5 1.494 1.5a1.499 1.499 0 001.496-1.5L16.62 3l2.895.094V7.5c0 .828.67 1.5 1.495 1.5a1.498 1.498 0 001.494-1.5V6H34.65c.166 0 .268.126.284.154l6.913 11.667c-.012.023-.097.18-.288.18H3.45c-.14 0-.222-.115-.262-.107L10.075 6.15zm16.914 38.85h-8.968v-7.128c0-1.033.837-1.875 1.867-1.875h5.234c1.03 0 1.866.842 1.866 1.875V45l.001.001z" fill="#fff" fill-opacity=".5"/></svg>
